X:71
M:6/8
L:1/8
K:Bb
|: B2f fgf | fbf fdB | d2f fbf | cdB AGF | B2f fgf | fbf fdB | ece dBd | cdB AGF :|

